svg/Editing/clipboard-arrow-twotone.svg

<svg xmlns="http://www.w3.org/2000/svg" width="24" height="24" viewBox="0 0 24 24">
    <path d="M6 4H10V6H14V4H18V10H20V18H18V20H6V4Z" fill="currentColor" fill-opacity="0">
        <animate attributeName="fill-opacity" values="0;0.3" begin="1.4s" dur="0.15s" fill="freeze" />
    </path>
    <g fill="none" stroke="currentColor" stroke-linecap="round" stroke-linejoin="round">
        <g stroke-width="2">
            <path d="M12 3H19V11" stroke-dasharray="16" stroke-dashoffset="16">
                <animate attributeName="stroke-dashoffset" values="16;0" dur="0.2s" fill="freeze" />
            </path>
            <path d="M19 17V21H5V3H12" stroke-dasharray="44" stroke-dashoffset="44">
                <animate attributeName="stroke-dashoffset" values="44;0" begin="0.2s" dur="0.4s" fill="freeze" />
            </path>
            <path d="M21 14H12.5" stroke-dasharray="10" stroke-dashoffset="10">
                <animate attributeName="stroke-dashoffset" values="10;0" begin="1s" dur="0.2s" fill="freeze" />
            </path>
            <path d="M12 14L15 17M12 14L15 11" stroke-dasharray="6" stroke-dashoffset="6">
                <animate attributeName="stroke-dashoffset" values="6;0" begin="1.2s" dur="0.2s" fill="freeze" />
            </path>
        </g>
        <path d="M14.5 3.5V6.5H9.5V3.5" stroke-dasharray="12" stroke-dashoffset="12">
            <animate attributeName="stroke-dashoffset" values="12;0" begin="0.7s" dur="0.2s" fill="freeze" />
        </path>
    </g>
</svg>

<svg xmlns="http://www.w3.org/2000/svg" width="24" height="24" viewBox="0 0 24 24">
	<g fill="none" stroke="currentColor" stroke-width="2" stroke-linecap="round" stroke-linejoin="round">
		<path d="M12 3h7v8" stroke-dasharray="16" stroke-dashoffset="16">
			<animate attributeName="stroke-dashoffset" values="16;0" dur="0.2s" fill="freeze" />
		</path>
		<path d="M14.5 3.5v3h-5v-3" stroke-width="1" stroke-dasharray="12" stroke-dashoffset="12">
			<animate attributeName="stroke-dashoffset" values="12;0" begin="0.9s" dur="0.2s" fill="freeze" />
		</path>
		<path d="M19 17v4h-14v-18h7" stroke-dasharray="48" stroke-dashoffset="48">
			<animate attributeName="stroke-dashoffset" values="48;0" begin="0.2s" dur="0.6s" fill="freeze" />
		</path>
		<path d="M21 14h-8.5" stroke-dasharray="12" stroke-dashoffset="12">
			<animate attributeName="stroke-dashoffset" values="12;0" begin="1.1s" dur="0.2s" fill="freeze" />
		</path>
		<path d="M12 14l3 3M12 14l3 -3" stroke-dasharray="8" stroke-dashoffset="8">
			<animate attributeName="stroke-dashoffset" values="8;0" begin="1.3s" dur="0.2s" fill="freeze" />
		</path>
	</g>
	<path d="M6 4H10V6H14V4H18V20H6V4Z" fill="currentColor" fill-opacity="0">
		<animate attributeName="fill-opacity" values="0;0.3" begin="1.6s" dur="0.15s" fill="freeze" />
	</path>
</svg>
